src/components/content/Icon/functional/arrow-up.svg

<svg width="100" height="100" viewBox="0 0 100 100" fill="none" xmlns="http://www.w3.org/2000/svg">
<path d="M58.6859 60.086H58.6979C59.2439 60.086 59.6919 59.646 59.6979 59.098L59.9019 41.074C59.9059 40.804 59.7999 40.546 59.6099 40.356C59.4199 40.166 59.1619 40.054 58.8919 40.064L40.8699 40.27C40.3179 40.276 39.8759 40.73 39.8819 41.282C39.8849 41.5452 39.9916 41.7966 40.1788 41.9816C40.366 42.1666 40.6187 42.2702 40.8819 42.27H40.8939L56.4639 42.092L40.2939 58.262C40.1066 58.4496 40.0014 58.7039 40.0014 58.969C40.0014 59.2341 40.1066 59.4884 40.2939 59.676C40.4899 59.872 40.7459 59.968 41.0019 59.968C41.2579 59.968 41.5139 59.87 41.7099 59.676L57.8799 43.506L57.7039 59.076C57.7013 59.3411 57.8037 59.5964 57.9889 59.7861C58.1741 59.9758 58.4269 60.0843 58.6919 60.088L58.6859 60.086Z" fill="#0B301A"/>
<path d="M49.9499 25.338C36.3439 25.338 25.2739 36.408 25.2739 50.014C25.2739 55.634 27.2139 61.132 30.7359 65.498C31.0819 65.928 31.7119 65.994 32.1419 65.648C32.2443 65.5657 32.3294 65.464 32.3924 65.3487C32.4554 65.2334 32.4949 65.1068 32.5089 64.9762C32.5228 64.8455 32.5108 64.7134 32.4736 64.5875C32.4364 64.4615 32.3746 64.3441 32.2919 64.242C29.0559 60.232 27.2739 55.178 27.2739 50.014C27.2739 37.51 37.4459 27.338 49.9499 27.338C62.4539 27.338 72.6259 37.51 72.6259 50.014C72.6259 62.518 62.4539 72.69 49.9499 72.69C44.5279 72.69 39.2799 70.746 35.1739 67.216C34.9728 67.0433 34.7114 66.9574 34.447 66.9773C34.1826 66.9972 33.937 67.1212 33.7639 67.322C33.5912 67.5231 33.5053 67.7846 33.5252 68.0489C33.5451 68.3133 33.6691 68.559 33.8699 68.732C38.3379 72.574 44.0499 74.69 49.9499 74.69C63.5559 74.69 74.6259 63.62 74.6259 50.014C74.6259 36.408 63.5559 25.338 49.9499 25.338Z" fill="#0B301A"/>
</svg>

<svg xmlns="http://www.w3.org/2000/svg" width="100" height="100" fill="none" viewBox="0 0 100 100"><path fill="#0b301a" d="M58.686 60.086h.012a1 1 0 0 0 1-.988l.204-18.024a1 1 0 0 0-.292-.718.97.97 0 0 0-.718-.292l-18.022.206a1 1 0 0 0 .012 2h.012l15.57-.178-16.17 16.17a1 1 0 0 0 1.416 1.414l16.17-16.17-.176 15.57a1 1 0 0 0 .988 1.012z"/><path fill="#0b301a" d="M49.95 25.338c-13.606 0-24.676 11.07-24.676 24.676 0 5.62 1.94 11.118 5.462 15.484a1 1 0 0 0 1.556-1.256 22.73 22.73 0 0 1-5.018-14.228c0-12.504 10.172-22.676 22.676-22.676S72.626 37.51 72.626 50.014 62.454 72.69 49.95 72.69a22.68 22.68 0 0 1-14.776-5.474 1 1 0 0 0-1.304 1.516 24.68 24.68 0 0 0 16.08 5.958c13.606 0 24.676-11.07 24.676-24.676S63.556 25.338 49.95 25.338"/></svg>
